packages/katcn/src/icons/svg/fix.svg

<svg width="24" height="25" viewBox="0 0 24 25" fill="none" xmlns="http://www.w3.org/2000/svg">
<path d="M22.4481 7.91212C22.3469 7.60903 22.0434 7.30593 21.7399 7.30593C21.4364 7.2049 21.0317 7.30593 20.8294 7.60903L17.5919 10.842C17.1872 11.2461 16.5802 11.4482 15.9732 11.5492C15.3662 11.5492 14.8603 11.3472 14.3545 10.943C13.9498 10.5389 13.6463 9.93273 13.6463 9.32655C13.6463 8.61933 13.9498 7.91212 14.4556 7.40697L17.4907 4.37604C17.6931 4.17398 17.7943 3.76986 17.7943 3.46676C17.7943 3.16367 17.3896 2.65852 17.0861 2.55749C13.2416 1.14306 8.99245 2.35543 6.46319 5.68944C4.84447 7.81109 4.33862 10.5389 4.94564 13.1657L1.80936 16.2977C1.30351 16.8028 1 17.6111 1 18.3183C1 19.0255 1.30351 19.8338 1.80936 20.3389L4.43979 23.1678C4.94564 23.6729 5.755 23.976 6.46319 23.976C7.17138 23.976 7.98075 23.6729 8.4866 23.1678L11.6229 20.0358C14.658 20.743 17.8954 19.8338 20.2223 17.6111C22.8528 15.0853 23.6621 11.2461 22.4481 7.91212ZM18.9071 16.1966C17.0861 18.0152 14.3545 18.7224 11.8252 18.0152C11.4205 17.9142 11.117 18.0152 10.8135 18.3183L7.27256 21.8544C6.96904 22.1575 6.36202 22.1575 5.95734 21.8544L3.22575 19.1265C3.0234 18.8234 2.92223 18.6214 2.92223 18.4193C2.92223 18.2173 3.0234 17.9142 3.22575 17.8131L6.7667 14.2771C7.07021 13.974 7.17138 13.6709 6.96904 13.2668C6.36202 11.0441 6.7667 8.61933 8.08192 6.90181C9.4983 4.98223 11.6229 3.97192 13.8486 3.97192C14.1521 3.97192 14.4556 3.97192 14.7592 4.07295L12.9381 5.8915C12.0276 6.69975 11.5217 8.01315 11.5217 9.22552C11.5217 10.4379 12.0276 11.4482 12.8369 12.2564C13.6463 12.9637 14.658 13.3678 15.7709 13.3678C15.7709 13.3678 15.7709 13.3678 15.872 13.3678C16.9849 13.3678 18.0978 12.9637 18.9071 12.0544L20.8294 10.1348C21.234 12.3575 20.4247 14.5802 18.9071 16.1966Z" fill="black"/>
</svg>

<svg xmlns="http://www.w3.org/2000/svg" fill="none" viewBox="0 0 24 25"><path fill="#000" d="M22.448 7.912c-.101-.303-.405-.606-.708-.606-.304-.101-.708 0-.91.303l-3.238 3.233c-.405.404-1.012.606-1.619.707-.607 0-1.113-.202-1.619-.606-.404-.404-.708-1.01-.708-1.616 0-.708.304-1.415.81-1.92l3.035-3.031c.202-.202.303-.606.303-.91 0-.302-.404-.807-.708-.909-3.844-1.414-8.094-.202-10.623 3.132-1.619 2.122-2.124 4.85-1.517 7.477l-3.137 3.132C1.304 16.803 1 17.61 1 18.318s.304 1.516.81 2.02l2.63 2.83c.506.505 1.315.808 2.023.808s1.518-.303 2.024-.808l3.136-3.132c3.035.707 6.272-.202 8.6-2.425 2.63-2.526 3.44-6.365 2.225-9.699m-3.54 8.285c-1.822 1.818-4.554 2.525-7.083 1.818-.404-.1-.708 0-1.011.303l-3.541 3.536c-.304.303-.911.303-1.316 0l-2.731-2.727c-.203-.304-.304-.506-.304-.708s.101-.505.304-.606l3.54-3.536c.304-.303.405-.606.203-1.01-.607-2.223-.202-4.648 1.113-6.365 1.416-1.92 3.54-2.93 5.767-2.93.303 0 .607 0 .91.1l-1.82 1.82c-.911.808-1.417 2.121-1.417 3.334 0 1.212.506 2.222 1.315 3.03a4.4 4.4 0 0 0 2.934 1.112h.101c1.113 0 2.226-.404 3.035-1.314l1.922-1.92c.405 2.223-.404 4.446-1.922 6.063"/></svg>
